X:1
T:Bet3
T:A whole new World
T:de Wald Disney, Aladdin
T:Música de Alan Menken
C:b
L:1/8
M:none
K:C
V:1 treble nm="Violín" snm="Vln."
V:1
 F2 E G2 F D2 | A,8 | F2 E G2 F D2 | F4 E4 | E2 ^D F2 E C2 | E2 D2 C2 D2 | B, C2 E2 D2 A,- | A,8 | %8
 F2 E G2 F D2 | A,8 | F2 E G2 F D2 | F4 E4 | E2 ^D F2 E C2 | E2 D2 C2 D2 | B, C2 E2 D2 F- | %15
 F3 F G2 B2 | A8- | A2 z F G2 B2 | A E2 G2 F z F- | F4 F2 G2 | A2 c2 B2 A z | D c2 B2 A2 D | %22
 F E2 D2 B, D2 | E z F2 G2 B2 | A8- | A2 z F G2 B2 | A E2 G2 F z F- | F4 F2 G2 | A2 c2 B2 A z | %29
 D c2 d2 A2 D | c2 d2 A2 D2 | F2 E2 D2 E2 | G2 F2 D2 C2 | D8- | D4 z4 | A2 G B2 A F2 | C4 z4 | %37
 A2 G B2 A F2 | A4 G4 | z4 z4 | G2 ^F A2 G E2 | G2 F2 E2 F2 | D E2 G2 F2 A- | A3 A B2 d2 | c8- | %45
 c2 z A B2 d2 | c2 G2 B2 A2 | A4 A2 B2 | c2 e2 d2 c2 | F e2 d2 c2 F | A2 G2 F2 G2 | B2 A2 F2 D z | %52
 G2 AA A2 G2 | F2 C6- | C8 | z2 AA A2 G2 | F2 G F2 A2 B- | B c2 e2 d2 c- | cF e2 f2 c2- | %59
 c2 A2 G2 F2 | G2 B2 A2 F2 | E2 F6- | F4 z4 | z2 z A B2 d2 | c8- | c2 z A B2 d2 | c8 | %67
 z2 z A B2 d2 | c2 z A B2 d2 | c2 z A B2 d2 | c2 z C F2 E2 | F8 |] %72

